static/assets/img/icons/theme/files/music.svg

<svg height="24" viewBox="0 0 24 24" width="24" xmlns="http://www.w3.org/2000/svg"><g fill="none" fill-rule="evenodd"><path d="m0 0h24v24h-24z" opacity="0"/><g fill="#000"><path d="m5.85714286 2h7.87926854c.3546848 0 .6978952.12568431.9686994.35473959l4.7635886 4.02920201c.3369538.28500673.5313006.70393663.5313006 1.14526041v12.55413129c0 1.7905418-.0204479 1.9166667-1.8571429 1.9166667h-12.28571424c-1.83669499 0-1.85714286-.1261249-1.85714286-1.9166667v-16.16666663c0-1.79054178.02044787-1.91666667 1.85714286-1.91666667z" fill-rule="nonzero" opacity=".3"/><path d="m9.83333333 17c-1.01252204 0-1.83333333-.6840094-1.83333333-1.5277778 0-.8437683.82081129-1.5277778 1.83333333-1.5277778.21427717 0 .41996847.0306341.61111107.0869335v-4.23977677c0-.31336037.1954218-.59036069.482436-.68382826l3.5138889-1.07466097c.4427023-.14416814.892564.20048857.892564.68382826v1.07466097c0 .35822037-.3354001.58699977-.6111111.65284327-.3966925.0947356-1.415211.2984393-3.0555555.6111112v4.4479658c0 .0548648-.0044493.1056623-.0131263.1524655-.1089167.757122-.8823164 1.3440131-1.82020707 1.3440131z"/></g></g></svg>

<svg width="24px" height="24px" viewBox="0 0 24 24" version="1.1" xmlns="http://www.w3.org/2000/svg" xmlns:xlink="http://www.w3.org/1999/xlink">
    <title>Icon For Music</title>
    <g stroke="none" stroke-width="1" fill="none" fill-rule="evenodd">
        <polygon points="0 0 24 0 24 24 0 24" opacity="0"></polygon>
        <path d="M5.85714286,2 L13.7364114,2 C14.0910962,2 14.4343066,2.12568431 14.7051108,2.35473959 L19.4686994,6.3839416 C19.8056532,6.66894833 20,7.08787823 20,7.52920201 L20,20.0833333 C20,21.8738751 19.9795521,22 18.1428571,22 L5.85714286,22 C4.02044787,22 4,21.8738751 4,20.0833333 L4,3.91666667 C4,2.12612489 4.02044787,2 5.85714286,2 Z" fill="#000000" fill-rule="nonzero" opacity="0.3"></path>
        <path d="M9.83333333,17 C8.82081129,17 8,16.3159906 8,15.4722222 C8,14.6284539 8.82081129,13.9444444 9.83333333,13.9444444 C10.0476105,13.9444444 10.2533018,13.9750785 10.4444444,14.0313779 L10.4444444,9.79160113 C10.4444444,9.47824076 10.6398662,9.20124044 10.9268804,9.10777287 L14.4407693,8.0331119 C14.8834716,7.88894376 15.3333333,8.23360047 15.3333333,8.71694016 L15.3333333,9.79160113 C15.3333333,10.1498215 14.9979332,10.3786009 14.7222222,10.4444444 C14.3255297,10.53918 13.3070112,10.7428837 11.6666667,11.0555556 L11.6666667,15.5035214 C11.6666667,15.5583862 11.6622174,15.6091837 11.6535404,15.6559869 C11.5446237,16.4131089 10.771224,17 9.83333333,17 Z" fill="#000000"></path>
    </g>
</svg>
